// @title W03-02
// @license CC BY-NC-SA 4.0 https://creativecommons.org/licenses/by-nc-sa/4.0/
// @by nisma
// @date Jan 18, 2026

// 02

samples('github:tidalcycles/dirt-samples')
$: n("1 2 3 4 [2*2], 5 ,6 , [7*2] ? 0.7").s("pluck").gain(1)
