// @title W01-05
// @license CC BY-NC-SA 4.0 https://creativecommons.org/licenses/by-nc-sa/4.0/
// @by nisma
// @date Jan 19, 2026

// 5
setcps(0.4)
$: note("<[G F G Bb D F]*2 [Eb D Eb F
        ]>").scale("C:minor").sound("gm_xylophone")
